X: 36310
T: Seamus O'Shanahan's
R: jig
M: 6/8
K: Aminor
EAG AGA|BAB GB/c/d|edc Bcd|AGB AG^F|
EAG AGA|BAB GB/c/d|edc Bcd|BAG A2:|
def fed|eAA ABc|BBB d2 B|cde edc|
def fed|eAA ABc|BBB d2 B|BAG A2:|

